!!!COM: Faugues, Guillaume
!!!CDT: <1460-1475
!!!OPR: Missa Vinnus vina
!!!SMS: VatS 51, fols. 68v-81r
!!!ONM:	1
!!!OTL:	Kyrie
!!!AGN:	Mass; Kyrie
!!!voices: 4
**kern	**text	**kern	**text	**kern	**text	**kern	**text
*staff4	*staff4	*staff3	*staff3	*staff2	*staff2	*staff1	*staff1
*Ivox	*Ivox	*Ivox	*Ivox	*Ivox	*Ivox	*Ivox	*Ivox
*I"Bassus	*	*I"Tenor	*	*I"Altus	*	*I"Discantus	*
*I'B	*	*I'T	*	*I'A	*	*I'D	*
*>[A,B,C]	*>[A,B,C]	*>[A,B,C]	*>[A,B,C]	*>[A,B,C]	*>[A,B,C]	*>[A,B,C]	*>[A,B,C]
*clefF4	*	*clefGv2	*	*clefGv2	*	*clefG2	*
*k[b-e-]	*	*k[b-]	*	*k[b-e-]	*	*k[b-e-]	*
*>A	*>A	*>A	*>A	*>A	*>A	*>A	*>A
*M3/1	*	*M3/1	*	*M3/1	*	*M3/1	*
*met(O)	*	*met(O)	*	*met(O)	*	*met(O)	*
!!!OMD: Kyrie I
!!section: Kyrie I
=1-	=1-	=1-	=1-	=1-	=1-	=1-	=1-
0B-	Ky-	0.r	.	0.E-	Ky-	0b-	Ky-
[1G	.	.	.	.	.	1b-	-ri-
=2	=2	=2	=2	=2	=2	=2	=2
1G]	.	0.r	.	[0.B-	.	1.b-	-e
0E-	.	.	.	.	.	.	.
.	.	.	.	.	.	2a/	.
.	.	.	.	.	.	2g/	.
.	.	.	.	.	.	2f/	.
=3	=3	=3	=3	=3	=3	=3	=3
0.BB-	-ri-	0.r	.	0.B-]	.	1f	e-
.	.	.	.	.	.	2g/	-le-
.	.	.	.	.	.	2f/	.
.	.	.	.	.	.	1b-	.
=4	=4	=4	=4	=4	=4	=4	=4
0D	.	0.r	.	1F	-ri-	1.a	.
.	.	.	.	1A	.	.	.
.	.	.	.	.	.	2f/	.
2E-\	-e	.	.	2G/	-e	2g/	.
2D\	.	.	.	[2B-\	e-	2f/	.
=5	=5	=5	=5	=5	=5	=5	=5
1BB-	.	0.r	.	2B-\]	.	1d	.
.	.	.	.	1G	.	.	.
2C/	.	.	.	.	.	2e-/	.
2D\	.	.	.	2F/	-le-	1f	.
1BB-	.	.	.	1B-	.	.	.
.	.	.	.	.	.	2B-/	.
=6	=6	=6	=6	=6	=6	=6	=6
1r	.	0.r	.	2c\	.	2A/	.
.	.	.	.	2.d\	.	1B-	.
1BB-	e-	.	.	.	.	.	.
.	.	.	.	4B-\	.	.	.
.	.	.	.	1B-	-i-	2d/	-i-
1F	.	.	.	.	.	1c	.
.	.	.	.	2A/	.	.	.
=7	=7	=7	=7	=7	=7	=7	=7
2G\	-le-	0.r	.	0B-	-son.	1B-	-son.
2E-\	.	.	.	.	.	.	.
1BB-	.	.	.	.	.	2r	.
.	.	.	.	.	.	2f/	Ky-
2B-\	.	.	.	2r	.	2g/	.
2c\	.	.	.	2F/	Ky-	2a/	.
=8	=8	=8	=8	=8	=8	=8	=8
2B-\	.	0.r	.	2G/	-ri-	2b-\	-ri-
2A\	.	.	.	2F/	.	2.cc\	.
1G	-i-	.	.	1B-	-e,	.	.
.	.	.	.	.	.	4b-\	.
.	.	.	.	.	.	1b-	-e
1F	.	.	.	1c	.	.	.
.	.	.	.	.	.	2a/	.
=9	=9	=9	=9	=9	=9	=9	=9
0.E-	-son.	0.B-	Ky-	1r	.	1.b-	e-
.	.	.	.	0e-	Ky-	.	.
.	.	.	.	.	.	2a/	.
.	.	.	.	.	.	1g	-le-
=10	=10	=10	=10	=10	=10	=10	=10
2.BB-/	Ky-	0.B-	-ri-	1d	-ri-	1.f	.
4C/	.	.	.	.	.	.	.
2D\	.	.	.	1B-	.	.	.
1E-	.	.	.	.	.	1g	.
.	.	.	.	1G	-e	.	.
2D\	.	.	.	.	.	2f/	.
=11	=11	=11	=11	=11	=11	=11	=11
0.BB-	-ri-	0.B-	-e	1F	.	1.d	.
.	.	.	.	1r	.	.	.
.	.	.	.	.	.	2c/	-i-
.	.	.	.	1f	e-	2B-/	.
.	.	.	.	.	.	2A/	.
=12	=12	=12	=12	=12	=12	=12	=12
0D	.	[0.F	e-	1f	-le-	1A	-son,
.	.	.	.	2d\	.	1r	.
.	.	.	.	1d	.	.	.
1D	-e	.	.	.	.	1a	e-
.	.	.	.	2c\	.	.	.
=13	=13	=13	=13	=13	=13	=13	=13
0D	e-	1F]	.	2A/	.	1.a	-le-
.	.	.	.	2.d\	.	.	.
.	.	0F	-le-	.	.	.	.
.	.	.	.	4c\	.	.	.
.	.	.	.	2d\	.	2g/	.
1D	-le-	.	.	2A/	.	1f	.
.	.	.	.	2B-\	-i-	.	.
=14	=14	=14	=14	=14	=14	=14	=14
[0.C	.	[0.G	.	0c	-son.	1.e-	.
.	.	.	.	.	.	2c/	.
.	.	.	.	1r	.	2e-/	.
.	.	.	.	.	.	2f/	.
=15	=15	=15	=15	=15	=15	=15	=15
0.C]	.	0G]	.	0c	Ky-	1.g	.
.	.	.	.	.	.	2f/	.
.	.	1A	.	1c	-ri-	1e-	-i-
=16	=16	=16	=16	=16	=16	=16	=16
0.BB-	.	0.B-	-i-	1F	-e	1d	-son.
.	.	.	.	1f	.	1r	.
.	.	.	.	1d	.	1f	Ky-
=17	=17	=17	=17	=17	=17	=17	=17
0E-	.	0.B-	-son.	1r	.	1g	-ri-
.	.	.	.	2.e-\	e-	1.b-	.
.	.	.	.	4d\	.	.	.
1E-	.	.	.	2.B-\	.	.	.
.	.	.	.	.	.	2a/	.
.	.	.	.	4c\	.	.	.
=18	=18	=18	=18	=18	=18	=18	=18
1D	.	0.r	.	2.d\	.	1f	-e
.	.	.	.	8c\L	.	.	.
.	.	.	.	8d\J	.	.	.
1C	.	.	.	2.e-\	-le-	1.cc	.
.	.	.	.	4c\	.	.	.
[1F	.	.	.	2c\	.	.	.
.	.	.	.	[2f\	.	2b-\	.
=19	=19	=19	=19	=19	=19	=19	=19
1F]	.	0.r	.	2f\]	.	1a	.
.	.	.	.	2d\	.	.	.
1E-	.	.	.	2e-\	.	1.g	.
.	.	.	.	1c	.	.	.
1F	.	.	.	.	.	.	.
.	.	.	.	2A/	-son.	2f/	.
=20	=20	=20	=20	=20	=20	=20	=20
1A	-i-	0.r	.	2r	.	1.f	e-
.	.	.	.	2F/	Ky-	.	.
0G	-son.	.	.	0C	.	.	.
.	.	.	.	.	.	2eni/	.
.	.	.	.	.	.	2eni/	.
.	.	.	.	.	.	2d/	.
=21	=21	=21	=21	=21	=21	=21	=21
1F	Ky-	0.r	.	1c	-ri-	1f	.
0BB-	-ri-	.	.	1f	.	2d/	.
.	.	.	.	.	.	1B-	-le-
.	.	.	.	2.d\	.	.	.
.	.	.	.	.	.	[2f/	.
.	.	.	.	8c\L	.	.	.
.	.	.	.	8d\J	.	.	.
=22	=22	=22	=22	=22	=22	=22	=22
1B-	-e	0.r	.	1d	-e	2f/]	.
.	.	.	.	.	.	2g/	.
1d	.	.	.	1B-	.	2f/	.
.	.	.	.	.	.	1b-	.
1c	.	.	.	1F	.	.	.
.	.	.	.	.	.	2a/	.
=23	=23	=23	=23	=23	=23	=23	=23
1B-	e-	0.r	.	2G/	e-	1.b-	.
.	.	.	.	1E-	.	.	.
0E-	.	.	.	.	.	.	.
.	.	.	.	2.e-\	-le-	2a/	.
.	.	.	.	.	.	2g/	.
.	.	.	.	4d\	.	.	.
.	.	.	.	[2c\	.	2f/	.
=24	=24	=24	=24	=24	=24	=24	=24
1D	-le-	0.r	.	4c\]	.	1f	-i-
.	.	.	.	4B-\	.	.	.
.	.	.	.	1B-	-i-	.	.
0C	.	.	.	.	.	1.e-	.
.	.	.	.	2A/	.	.	.
.	.	.	.	2A/	-son,	.	.
.	.	.	.	2G/	.	2d/	.
=25	=25	=25	=25	=25	=25	=25	=25
0.BB-	.	0.B-	Ky-	1B-	e-	1d	-son,
.	.	.	.	0F	.	1r	.
.	.	.	.	.	.	1b-	e-
=26	=26	=26	=26	=26	=26	=26	=26
0.BB-	-i-	0B-	-ri-	0.f	.	1.dd	-le-
.	.	.	.	.	.	2cc\	.
.	.	1B-	-e	.	.	1b-	.
=27	=27	=27	=27	=27	=27	=27	=27
0F	.	[0.c	e-	1f	-le-	1a	.
.	.	.	.	1c	.	1.cc	.
1C	-son,	.	.	1e-	.	.	.
.	.	.	.	.	.	2b-\	.
=28	=28	=28	=28	=28	=28	=28	=28
1F	.	1c]	.	1f	.	1a	.
0G	.	0B-	-le-	0d	-i-	2g/	.
.	.	.	.	.	.	1b-	.
.	.	.	.	.	.	2a/	.
=29	=29	=29	=29	=29	=29	=29	=29
1D	.	[0.A	.	1d	-son,	1f	.
1r	.	.	.	1c	.	2e-/	.
.	.	.	.	.	.	1c	.
1F	e-	.	.	1r	.	.	.
.	.	.	.	.	.	[2f/	.
=30	=30	=30	=30	=30	=30	=30	=30
1F	-le-	1A]	.	0.c	e-	4f/]	.
.	.	.	.	.	.	4e-/	.
.	.	.	.	.	.	2f/	.
0C	.	0G	-i-	.	.	2g/	.
.	.	.	.	.	.	2.eni/	-i-
.	.	.	.	.	.	4d/	.
.	.	.	.	.	.	2eni/	.
=31	=31	=31	=31	=31	=31	=31	=31
0D	.	[0.Fl	-son.	1.A	-le-	1.f	-son.
.	.	.	.	2G/	.	2.d/	.
1BB-	-i-	.	.	1B-	-i-	.	.
.	.	.	.	.	.	4e-/	.
.	.	.	.	.	.	2f/	.
=32	=32	=32	=32	=32	=32	=32	=32
0.BB-l	-son.	0.F]	.	0.B-l	-son.	0.dl	.
!!LO:LB:i:g=z
=33||	=33||	=33||	=33||	=33||	=33||	=33||	=33||
!!!OMD: Christe
!!section: Christe
*>B	*>B	*>B	*>B	*>B	*>B	*>B	*>B
*M2/1	*	*M2/1	*	*M2/1	*	*M2/1	*
*met(C|)	*	*met(C|)	*	*met(C|)	*	*met(C|)	*
0F	Chri-	0ryy	.	1.c	Chri-	0r	.
.	.	.	.	2A/	.	.	.
=34	=34	=34-	=34	=34	=34	=34	=34
1G	.	0ryy	.	1.B-	.	0r	.
[1B-	.	.	.	.	.	.	.
.	.	.	.	2A/	.	.	.
=35	=35	=35-	=35	=35	=35	=35	=35
1B-]	.	0ryy	.	1G	.	0r	.
1A	-ste	.	.	2F/	.	.	.
.	.	.	.	[2A/	.	.	.
=36	=36	=36-	=36	=36	=36	=36	=36
1F	e-	0ryy	.	4A/]	.	0r	.
.	.	.	.	4B-\	.	.	.
.	.	.	.	2c\	.	.	.
1G	.	.	.	2B-\	.	.	.
.	.	.	.	[2d\	.	.	.
=37	=37	=37-	=37	=37	=37	=37	=37
1F	-le-	0ryy	.	4d\]	.	0r	.
.	.	.	.	4c\	.	.	.
.	.	.	.	1A	.	.	.
[1D	.	.	.	.	.	.	.
.	.	.	.	2B-\	.	.	.
=38	=38	=38-	=38	=38	=38	=38	=38
1D]	.	0ryy	.	2A/	.	0r	.
.	.	.	.	1F	.	.	.
1BB-	.	.	.	.	.	.	.
.	.	.	.	[2B-\	.	.	.
=39	=39	=39-	=39	=39	=39	=39	=39
0C	-i-	0ryy	.	2B-\]	.	0r	.
.	.	.	.	2A/	.	.	.
.	.	.	.	2A/	.	.	.
.	.	.	.	2G/	.	.	.
=40	=40	=40-	=40	=40	=40	=40	=40
[0BB-	-son,	0ryy	.	0B-	-ste	0f	Chri-
=41	=41	=41-	=41	=41	=41	=41	=41
0BB-_	.	0ryy	.	1r	.	1g	.
.	.	.	.	1F	e-	[1b-	.
=42	=42	=42-	=42	=42	=42	=42	=42
0BB-]	.	0ryy	.	1G	-le-	1b-]	.
.	.	.	.	1F	.	1a	-ste
=43	=43	=43-	=43	=43	=43	=43	=43
*	*	*	*	*M3/3%2	*	*	*
*	*	*	*	*met(3)	*	*	*
[0BB-	e-	0ryy	.	3%4B-	.	1f	e-
.	.	.	.	.	.	1g	.
.	.	.	.	3%2B-	.	.	.
=44	=44	=44-	=44	=44	=44	=44	=44
0BB-_	.	0ryy	.	1B-	.	1f	-le-
.	.	.	.	3A/	.	[1d	.
.	.	.	.	3%2G	.	.	.
=45	=45	=45-	=45	=45	=45	=45	=45
0BB-]	.	0ryy	.	3%2F	.	1d]	.
.	.	.	.	3%4B-	.	.	.
.	.	.	.	.	.	1B-	.
=46	=46	=46-	=46	=46	=46	=46	=46
0F	-le-	0ryy	.	3%4A	.	0c	-i-
.	.	.	.	3%2G	-i-	.	.
=47	=47	=47-	=47	=47	=47	=47	=47
*	*	*	*	*M2/1	*	*	*
*	*	*	*	*met(C|)	*	*	*
0G	.	0ryy	.	[0B-	-son,	0B-	-son.
=48	=48	=48-	=48	=48	=48	=48	=48
[0E-	.	0ryy	.	1B-]	.	0r	.
.	.	.	.	[1e-	.	.	.
=49	=49	=49-	=49	=49	=49	=49	=49
0E-]	.	0ryy	.	0e-]	.	[0b-	Chri-
=50	=50	=50-	=50	=50	=50	=50	=50
[0BB-	.	0ryy	.	[0d	.	1b-]	.
.	.	.	.	.	.	1a	-ste
=51	=51	=51-	=51	=51	=51	=51	=51
0BB-]	.	0ryy	.	1d]	.	1f	e-
.	.	.	.	[1B-	.	1g	.
=52	=52	=52-	=52	=52	=52	=52	=52
0B-	-i-	0ryy	.	2B-\]	.	1f	-le-
.	.	.	.	2A/	.	.	.
.	.	.	.	1G	.	[1b-	.
=53	=53	=53-	=53	=53	=53	=53	=53
0c	.	0ryy	.	0F	.	2b-\]	.
.	.	.	.	.	.	4a/	.
.	.	.	.	.	.	4g/	.
.	.	.	.	.	.	[1a	.
=54	=54	=54-	=54	=54	=54	=54	=54
0B-	.	0ryy	.	1G	e-	2a/]	.
.	.	.	.	.	.	4g/	.
.	.	.	.	.	.	4f/	.
.	.	.	.	1E-	.	[1g	.
=55	=55	=55-	=55	=55	=55	=55	=55
1A	-son.	0ryy	.	1F	-le-	2g/]	.
.	.	.	.	.	.	4f/	.
.	.	.	.	.	.	4e-/	.
1F	.	.	.	1D	.	[1f	.
=56	=56	=56-	=56	=56	=56	=56	=56
0G	.	0ryy	.	0C	.	2f/]	.
.	.	.	.	.	.	2d/	.
.	.	.	.	.	.	2eni/	-i-
.	.	.	.	.	.	4d/	.
.	.	.	.	.	.	4eni/	.
=57	=57	=57-	=57	=57	=57	=57	=57
0F	.	0ryy	.	0c	.	[0f	-son.
=58	=58	=58-	=58	=58	=58	=58	=58
1r	.	0ryy	.	0d	.	0f_	.
1B-	Chri-	.	.	.	.	.	.
=59	=59	=59-	=59	=59	=59	=59	=59
1A	.	0ryy	.	1c	.	0f]	.
1F	.	.	.	[1f	.	.	.
=60	=60	=60-	=60	=60	=60	=60	=60
0G	.	0ryy	.	1f]	.	1r	.
.	.	.	.	1eni	.	1b-	Chri-
=61	=61	=61-	=61	=61	=61	=61	=61
1.F	.	0ryy	.	1f	.	1a	.
.	.	.	.	[1d	.	1f	.
2D\	.	.	.	.	.	.	.
=62	=62	=62-	=62	=62	=62	=62	=62
0E-	-ste	0ryy	.	2d\]	.	0g	.
.	.	.	.	4c\	.	.	.
.	.	.	.	4B-\	.	.	.
.	.	.	.	[1c	.	.	.
=63	=63	=63-	=63	=63	=63	=63	=63
1D	e-	0ryy	.	2c\]	.	1.f	.
.	.	.	.	2B-\	.	.	.
1BB-	.	.	.	[1B-	.	.	.
.	.	.	.	.	.	2d/	.
=64	=64	=64-	=64	=64	=64	=64	=64
0C	.	0ryy	.	2B-\]	.	0e-	-ste
.	.	.	.	4A/	.	.	.
.	.	.	.	4G/	.	.	.
.	.	.	.	1A	-i-	.	.
=65	=65	=65-	=65	=65	=65	=65	=65
1BB-	-le-	0ryy	.	1B-	-son.	1d	e-
[1B-	.	.	.	1G	.	1B-	.
=66	=66	=66-	=66	=66	=66	=66	=66
1B-]	.	0ryy	.	0F	.	0c	.
1A	.	.	.	.	.	.	.
=67	=67	=67-	=67	=67	=67	=67	=67
1B-	.	0ryy	.	0f	.	1B-	-le-
1d	-i-	.	.	.	.	[1b-	.
=68	=68	=68-	=68	=68	=68	=68	=68
0c	-son.	0ryy	.	1.e-	.	1b-]	.
.	.	.	.	.	.	1a	.
.	.	.	.	2d\	.	.	.
=69	=69	=69-	=69	=69	=69	=69	=69
[0B-	.	0ryy	.	1f	.	1b-	.
.	.	.	.	1r	.	[1g	.
=70	=70	=70-	=70	=70	=70	=70	=70
0B-_	.	0ryy	.	[0d	Chri-	2g/]	.
.	.	.	.	.	.	2f/	.
.	.	.	.	.	.	[1f	.
=71	=71	=71-	=71	=71	=71	=71	=71
0B-_	.	0ryy	.	0d]	.	1f]	.
.	.	.	.	.	.	[1g	.
=72	=72	=72-	=72	=72	=72	=72	=72
0B-]	.	0ryy	.	0G	.	2g/]	.
.	.	.	.	.	.	2f/	.
.	.	.	.	.	.	1b-	.
=73	=73	=73-	=73	=73	=73	=73	=73
0F	Chri-	0ryy	.	0c	.	1a	.
.	.	.	.	.	.	[1cc	.
=74	=74	=74-	=74	=74	=74	=74	=74
1.A	-ste	0ryy	.	0F	.	1cc]	.
.	.	.	.	.	.	[1f	.
2B-\	.	.	.	.	.	.	.
=75	=75	=75-	=75	=75	=75	=75	=75
1.G	.	0ryy	.	1.B-	-ste	2f/]	.
.	.	.	.	.	.	2g/	.
.	.	.	.	.	.	[1e-	.
2A\	.	.	.	2c\	.	.	.
=76	=76	=76-	=76	=76	=76	=76	=76
1.F	e-	0ryy	.	1.A	.	2e-/]	.
.	.	.	.	.	.	2f/	.
.	.	.	.	.	.	[1d	.
2G\	.	.	.	2B-\	.	.	.
=77	=77	=77-	=77	=77	=77	=77	=77
0E-	-le-	0ryy	.	1.G	.	2d/]	.
.	.	.	.	.	.	2c/	.
.	.	.	.	.	.	[1e-	.
.	.	.	.	2F/	.	.	.
=78	=78	=78-	=78	=78	=78	=78	=78
0F	.	0ryy	.	0A	.	2e-/]	.
.	.	.	.	.	.	2d/	.
.	.	.	.	.	.	[1f	.
=79	=79	=79-	=79	=79	=79	=79	=79
0BB-	.	0ryy	.	1B-	e-	1f]	.
.	.	.	.	1F	.	[1B-	.
=80	=80	=80-	=80	=80	=80	=80	=80
0E-	.	0ryy	.	1.G	-le-	1B-]	.
.	.	.	.	.	.	1e-	.
.	.	.	.	2B-\	.	.	.
=81	=81	=81-	=81	=81	=81	=81	=81
1F	.	0ryy	.	1A	.	1d	.
[1E-	.	.	.	[1G	.	[1c	.
=82	=82	=82-	=82	=82	=82	=82	=82
1E-]	.	0ryy	.	2G/]	.	2c/]	.
.	.	.	.	2F/	.	2B-/	.
1D	.	.	.	[1F	-i-	[1B-	-i-
=83	=83	=83-	=83	=83	=83	=83	=83
0C	-i-	0ryy	.	1F]	.	2B-/]	.
.	.	.	.	.	.	2G/	.
.	.	.	.	1E-	.	1A	.
=84	=84	=84-	=84	=84	=84	=84	=84
0BB-	-son,	0ryy	.	1F	-son,	[0B-	-son,
.	.	.	.	1f	.	.	.
=85	=85	=85-	=85	=85	=85	=85	=85
1r	.	0ryy	.	1d	e-	0B-_	.
[1E-	e-	.	.	1B-	.	.	.
=86	=86	=86-	=86	=86	=86	=86	=86
1E-]	.	0ryy	.	1e-	-le-	0B-]	.
1D	.	.	.	1f	.	.	.
=87	=87	=87-	=87	=87	=87	=87	=87
1E-	-le-	0ryy	.	2g\	.	1r	.
.	.	.	.	2e-\	.	.	.
1G	.	.	.	[1e-	.	1b-	e-
=88	=88	=88-	=88	=88	=88	=88	=88
0F	-i-	0ryy	.	2e-\]	.	1cc	.
.	.	.	.	2c\	.	.	.
.	.	.	.	1d	.	1a	.
=89	=89	=89-	=89	=89	=89	=89	=89
[0E-	-son.	0ryy	.	1e-	.	1.g	-le-
.	.	.	.	[1B-	.	.	.
.	.	.	.	.	.	[2b-\	.
=90	=90	=90-	=90	=90	=90	=90	=90
0E-_	.	0ryy	.	1B-]	.	2b-\]	.
.	.	.	.	.	.	1g	.
.	.	.	.	1c	.	.	.
.	.	.	.	.	.	[2e-/	.
=91	=91	=91-	=91	=91	=91	=91	=91
0E-_	.	0ryy	.	1B-	-i-	2e-/]	.
.	.	.	.	.	.	2f/	.
.	.	.	.	[1G	.	2e-/	.
.	.	.	.	.	.	4d/	.
.	.	.	.	.	.	4c/	.
=92	=92	=92-	=92	=92	=92	=92	=92
0E-]	.	0ryy	.	2G/]	.	1B-	.
.	.	.	.	2F/	.	.	.
.	.	.	.	1B-	.	[1e-	.
=93	=93	=93-	=93	=93	=93	=93	=93
0F	.	0ryy	.	2A/	.	1e-]	.
.	.	.	.	1A	-son.	.	.
.	.	.	.	.	.	1d	-i-
.	.	.	.	2G/	.	.	.
=94	=94	=94-	=94	=94	=94	=94	=94
[0E-	.	0ryy	.	0B-	Chri-	0e-	-son.
=95	=95	=95-	=95	=95	=95	=95	=95
0E-]	.	0ryy	.	0e-	.	[0B-	.
=96	=96	=96-	=96	=96	=96	=96	=96
1r	.	0ryy	.	1d	-ste	0B-]	.
1BB-	Chri-	.	.	1f	.	.	.
=97	=97	=97-	=97	=97	=97	=97	=97
2C/	.	0ryy	.	1e-	e-	1r	.
2E-\	.	.	.	.	.	.	.
2.D\	.	.	.	1f	.	1B-	Chri-
4C/	.	.	.	.	.	.	.
=98	=98	=98-	=98	=98	=98	=98	=98
1E-	-ste	0ryy	.	1c	-le-	2c/	.
.	.	.	.	.	.	2e-/	.
1r	.	.	.	1B-	.	2d/	.
.	.	.	.	.	.	4c/	.
.	.	.	.	.	.	4d/	.
=99	=99	=99-	=99	=99	=99	=99	=99
1C	e-	0ryy	.	1c	.	1e-	-ste
2D\	.	.	.	2A/	.	1r	.
[2F\	.	.	.	2F/	.	.	.
=100	=100	=100-	=100	=100	=100	=100	=100
2F\]	.	0ryy	.	1G	.	1c	e-
2E-\	.	.	.	.	.	.	.
1F	-le-	.	.	2A/	.	2d/	.
.	.	.	.	2F/	.	[2f/	.
=101	=101	=101-	=101	=101	=101	=101	=101
1G	.	0ryy	.	1C	.	2f/]	.
.	.	.	.	.	.	2e-/	.
2F\	.	.	.	2c\	.	1f	-le-
[2B-\	.	.	.	2d\	.	.	.
=102	=102	=102-	=102	=102	=102	=102	=102
2B-\]	.	0ryy	.	1B-	.	1g	.
2G\	.	.	.	.	.	.	.
2A\	.	.	.	2c\	.	2f/	.
2G\	.	.	.	[2d\	.	[2b-\	.
=103	=103	=103-	=103	=103	=103	=103	=103
1B-	.	0ryy	.	2d\]	.	2b-\]	.
.	.	.	.	2G/	.	2g/	.
2F\	.	.	.	1d	.	2a/	.
[2B-\	.	.	.	.	.	2g/	.
=104	=104	=104-	=104	=104	=104	=104	=104
2B-\]	.	0ryy	.	2G/	.	1b-	.
2G\	.	.	.	2B-\	.	.	.
2A\	.	.	.	2c\	.	2f/	.
2B-\	.	.	.	[2d\	.	[2b-\	.
=105	=105	=105-	=105	=105	=105	=105	=105
1G	.	0ryy	.	2d\]	.	2b-\]	.
.	.	.	.	2e-\	.	2g/	.
2F\	.	.	.	2f\	.	2a/	.
2G\	.	.	.	2d\	.	2b-\	.
=106	=106	=106-	=106	=106	=106	=106	=106
2B-\	.	0ryy	.	1d	.	1g	.
1A	.	.	.	.	.	.	.
.	.	.	.	2c\	.	2f/	.
2G\	.	.	.	2d\	.	2g/	.
=107	=107	=107-	=107	=107	=107	=107	=107
2c\	.	0ryy	.	2e-\	.	2r	.
2B-\	.	.	.	2f\	.	2b-\	.
1c	.	.	.	1e-	.	2a/	.
.	.	.	.	.	.	[2g/	.
=108	=108	=108-	=108	=108	=108	=108	=108
1e-	.	0ryy	.	1c	.	2g/]	.
.	.	.	.	.	.	1cc	.
1d	.	.	.	1G	.	.	.
.	.	.	.	.	.	2bni\	.
=109	=109	=109-	=109	=109	=109	=109	=109
1c	.	0ryy	.	1C	-son,	1.cc	.
1A	.	.	.	1F	.	.	.
.	.	.	.	.	.	[2a/	.
=110	=110	=110-	=110	=110	=110	=110	=110
2.F\	.	0ryy	.	1c	.	2a/]	.
.	.	.	.	.	.	1f	.
4E-\	.	.	.	.	.	.	.
2D\	.	.	.	2d\	.	.	.
2C/	.	.	.	2e-\	.	[2g/	.
=111	=111	=111-	=111	=111	=111	=111	=111
2E-\	.	0ryy	.	1c	.	2g/]	.
2F\	.	.	.	.	.	2f/	.
1G	-i-	.	.	1B-	.	2d/	.
.	.	.	.	.	.	2eni/	-i-
=112	=112	=112-	=112	=112	=112	=112	=112
*	*	*	*	*M2/1	*	*	*
*	*	*	*	*met(3)	*	*	*
1F	-son,	0ryy	.	3%2c	e-	0f	-son,
.	.	.	.	3%2A	.	.	.
1r	.	.	.	.	.	.	.
.	.	.	.	3%2B-	.	.	.
=113	=113	=113-	=113	=113	=113	=113	=113
*M3/1	*	*M3/1	*	*M3/1	*	*M3/1	*
*met(3)	*	*met()	*	*met()	*	*met()	*
!	!	!	!	!	!	!LO:N:vis=0	!
1C	e-	0.ryy	.	1c	-le-	0.r	.
1D	.	.	.	1F	.	.	.
1E-	.	.	.	1G	.	.	.
=114	=114	=114-	=114	=114	=114	=114	=114
*	*	*	*	*	*	*M3/1	*
*	*	*	*	*	*	*met(3)	*
0F	-le-	0.ryy	.	0A	.	1c	e-
.	.	.	.	.	.	1d	.
1G	.	.	.	1B-	.	1e-	.
=115	=115	=115-	=115	=115	=115	=115	=115
1A	.	0.ryy	.	1c	.	0f	-le-
0B-	.	.	.	0d	.	.	.
.	.	.	.	.	.	1g	.
=116	=116	=116-	=116	=116	=116	=116	=116
1F	.	0.ryy	.	1c	.	1f	.
0G	.	.	.	0B-	.	1d	.
.	.	.	.	.	.	1e-	.
=117	=117	=117-	=117	=117	=117	=117	=117
1F	.	0.ryy	.	1c	.	0f	.
1D	.	.	.	1d	.	.	.
1E-	.	.	.	1B-	.	1g	.
=118	=118	=118-	=118	=118	=118	=118	=118
0F	.	0.ryy	.	1A	.	1f	.
.	.	.	.	1c	.	1a	.
1G	.	.	.	1B-	.	1b-	.
=119	=119	=119-	=119	=119	=119	=119	=119
1F	.	0.ryy	.	1A	.	0cc	.
1A	.	.	.	1F	.	.	.
1B-	.	.	.	1G	.	1b-	.
=120	=120	=120-	=120	=120	=120	=120	=120
0c	.	0.ryy	.	1F	.	1a	.
.	.	.	.	0E-	-i-	1.g	.
1B-	.	.	.	.	.	.	.
.	.	.	.	.	.	2f/	.
=121	=121	=121-	=121	=121	=121	=121	=121
1A	-i-	0.ryy	.	1F	-son.	0f	-i-
0G	.	.	.	0C	.	.	.
.	.	.	.	.	.	1eni	.
=122	=122	=122-	=122	=122	=122	=122	=122
0.Fl	-son.	0.ryy	.	0.cl	.	0.fl	-son.
!!LO:LB:i:g=z
=123||	=123||	=123||	=123||	=123||	=123||	=123||	=123||
*>C	*>C	*>C	*>C	*>C	*>C	*>C	*>C
!!!OMD: Kyrie II
!!section: Kyrie II
*>k[b-e-]	*	*>k[b-e-]	*	*>k[b-e-]	*	*>k[b-e-]	*
*M3/1	*	*M3/1	*	*M3/1	*	*M3/1	*
*met(O)	*	*met(O)	*	*met(O)	*	*met(O)	*
[0.BB-	Ky-	0.r	.	0B-	Ky-	0f	Ky-
.	.	.	.	1B-	-ri-	1f	-ri-
=124	=124	=124	=124	=124	=124	=124	=124
0.BB-]	.	0.r	.	1F	-e	1.f	-e
.	.	.	.	0B-	e-	.	.
.	.	.	.	.	.	2e-/	.
.	.	.	.	.	.	2d/	.
.	.	.	.	.	.	2c/	.
=125	=125	=125	=125	=125	=125	=125	=125
0F	.	0.r	.	1A	-le-	1c	.
.	.	.	.	2F/	.	2r	.
.	.	.	.	1A	.	2c/	e-
2F\	-ri-	.	.	.	.	2d/	-le-
2G\	.	.	.	2B-\	.	2e-/	.
=126	=126	=126	=126	=126	=126	=126	=126
2A\	-e	0.r	.	2c\	.	2f/	.
1B-	.	.	.	2.d\	.	2.g/	.
.	.	.	.	4c\	.	4f/	.
2A\	.	.	.	1c	.	1f	.
1G	.	.	.	.	.	.	.
.	.	.	.	2B-\	-i-	2eni/	-i-
=127	=127	=127	=127	=127	=127	=127	=127
0.F	.	0.r	.	2c\	-son,	1f	-son,
.	.	.	.	2d\	.	.	.
.	.	.	.	2c\	.	1r	.
.	.	.	.	2.A/	.	.	.
.	.	.	.	.	.	1f	e-
.	.	.	.	4F/	.	.	.
.	.	.	.	[2B-\	.	.	.
=128	=128	=128	=128	=128	=128	=128	=128
0.BB-	e-	0.r	.	4B-\]	.	2g/	-le-
.	.	.	.	4A/	.	.	.
.	.	.	.	4G/	.	1b-	.
.	.	.	.	4F/	.	.	.
.	.	.	.	1F	e-	.	.
.	.	.	.	.	.	2a/	.
.	.	.	.	1B-	.	2f/	.
.	.	.	.	.	.	2g/	.
=129	=129	=129	=129	=129	=129	=129	=129
1F	-le-	0.r	.	2A/	-le-	2a/	.
.	.	.	.	1c	.	1f	.
2A\	.	.	.	.	.	.	.
2B-\	.	.	.	2G/	.	2d/	.
1G	.	.	.	1B-	.	2.eni/	-i-
.	.	.	.	.	.	4d/	.
=130	=130	=130	=130	=130	=130	=130	=130
2F\	.	0.r	.	2c\	.	2.f/	-son.
2.B-\	.	.	.	1d	.	.	.
.	.	.	.	.	.	8e-/L	.
.	.	.	.	.	.	8d/J	.
.	.	.	.	.	.	2f/	.
4A\	.	.	.	.	.	.	.
2B-\	.	.	.	2B-\	-i-	2d/	.
2c\	.	.	.	1F	-son.	1c	.
2A\	-i-	.	.	.	.	.	.
=131	=131	=131	=131	=131	=131	=131	=131
1B-	-son.	0.B-	Ky-	1f	Ky-	1B-	.
0E-	.	.	.	1g	.	1r	.
.	.	.	.	1e-	-ri-	[1b-	Ky-
=132	=132	=132	=132	=132	=132	=132	=132
0.BB-	.	0.B-	-ri-	1f	-e	2b-\]	.
.	.	.	.	.	.	2a/	.
.	.	.	.	1d	.	1f	-ri-
.	.	.	.	1B-	.	1g	.
=133	=133	=133	=133	=133	=133	=133	=133
0.BB-	Ky-	0.B-	-e	1d	.	1f	-e
.	.	.	.	0f	.	0b-	.
=134	=134	=134	=134	=134	=134	=134	=134
1D	-ri-	[0.F	e-	2r	.	1.a	e-
.	.	.	.	2d\	e-	.	.
2.F\	-e	.	.	1.c	-le-	.	.
.	.	.	.	.	.	2.f/	.
4G\	.	.	.	.	.	.	.
1A	.	.	.	.	.	.	.
.	.	.	.	.	.	4g/	.
.	.	.	.	[2A/	.	[2a/	-le-
=135	=135	=135	=135	=135	=135	=135	=135
1D	e-	0.F]	.	4A/]	.	2a/]	.
.	.	.	.	4F/	.	.	.
.	.	.	.	2A/	.	1d	.
1BB-	.	.	.	1.B-	.	.	.
.	.	.	.	.	.	2f/	.
[1D	.	.	.	.	.	2d/	.
.	.	.	.	2A/	-i-	[2d/	.
=136	=136	=136	=136	=136	=136	=136	=136
1D]	.	1F	-le-	1A	-son,	4d/]	.
.	.	.	.	.	.	4A/	.
.	.	.	.	.	.	1d	.
0E-	.	0G	-i-	1r	.	.	.
.	.	.	.	.	.	2c/	.
.	.	.	.	1G	e-	2c/	-i-
.	.	.	.	.	.	2B-/	.
=137	=137	=137	=137	=137	=137	=137	=137
0D	-le-	[0.A	-son.	0F	.	0.d	-son,
1F	.	.	.	1D	.	.	.
=138	=138	=138	=138	=138	=138	=138	=138
1D	.	0.A]	.	1F	.	1r	.
0C	.	.	.	0E-	.	1r	.
.	.	.	.	.	.	1c	e-
=139	=139	=139	=139	=139	=139	=139	=139
0.BB-	.	0.B-	Ky-	1F	-le-	1.d	.
.	.	.	.	1f	.	.	.
.	.	.	.	.	.	2e-/	.
.	.	.	.	1d	.	1f	.
=140	=140	=140	=140	=140	=140	=140	=140
0.E-	.	0B-	-ri-	1.e-	.	1.g	.
.	.	.	.	2f\	.	2f/	.
.	.	1B-	-e	1g	.	1b-	.
=141	=141	=141	=141	=141	=141	=141	=141
0.BB-	.	0B-	e-	1f	.	1.b-	-le-
.	.	.	.	1d	-i-	.	.
.	.	.	.	.	.	2cc\	.
.	.	1B-	-le-	1f	-son.	2dd\	.
.	.	.	.	.	.	2b-\	.
=142	=142	=142	=142	=142	=142	=142	=142
0F	.	0c	.	1r	.	2a/	.
.	.	.	.	.	.	2.f/	.
.	.	.	.	1c	Ky-	.	.
.	.	.	.	.	.	4g/	.
.	.	.	.	.	.	2a/	.
1BB-	.	1B-	.	1d	.	2b-\	.
.	.	.	.	.	.	[2g/	.
=143	=143	=143	=143	=143	=143	=143	=143
1F	-i-	1A	.	1c	-ri-	4g/]	.
.	.	.	.	.	.	4f/	.
.	.	.	.	.	.	1f	.
0C	-son.	0G	-i-	1c	-e	.	.
.	.	.	.	.	.	2eni/	.
.	.	.	.	1c	e-	2eni/	-i-
.	.	.	.	.	.	2d/	.
=144	=144	=144	=144	=144	=144	=144	=144
1c	Ky-	0.F	-son,	1A	-le-	1f	-son.
1A	.	.	.	1c	.	1r	.
1F	.	.	.	1d	.	1r	.
=145	=145	=145	=145	=145	=145	=145	=145
0E-	.	0.r	.	1.e-	.	1.g	Ky-
.	.	.	.	2d\	.	2f/	.
1E-	-ri-	.	.	1B-	.	1e-	.
=146	=146	=146	=146	=146	=146	=146	=146
0F	.	0.r	.	1.A	.	1d	-ri-
.	.	.	.	.	.	1.c	.
.	.	.	.	2F/	.	.	.
1E-	.	.	.	1G	.	.	.
.	.	.	.	.	.	2B-/	.
=147	=147	=147	=147	=147	=147	=147	=147
1D	-e	0.r	.	2F/	.	1B-	-e
.	.	.	.	2B-\	.	.	.
0C	.	.	.	2A/	.	1.e-	.
.	.	.	.	2B-\	.	.	.
.	.	.	.	2c\	.	.	.
.	.	.	.	2A/	.	2d/	.
=148	=148	=148	=148	=148	=148	=148	=148
0.BB-	.	1r	.	1.B-	.	1.d	e-
.	.	1r	.	.	.	.	.
.	.	.	.	2c\	-i-	2e-/	.
.	.	1B-	e-	1d	-son,	1f	.
=149	=149	=149	=149	=149	=149	=149	=149
1.E-	e-	0B-	-le-	1r	.	2g/	-le-
.	.	.	.	.	.	2e-/	.
.	.	.	.	1.e-	e-	2.g/	.
2F\	.	.	.	.	.	.	.
.	.	.	.	.	.	4a/	.
1G	.	1B-	.	.	.	1b-	.
.	.	.	.	4d\	.	.	.
.	.	.	.	4e-\	.	.	.
=150	=150	=150	=150	=150	=150	=150	=150
1F	-le-	0c	.	1f	-le-	2a/	.
.	.	.	.	.	.	1cc	.
1C	.	.	.	1.e-	.	.	.
.	.	.	.	.	.	2a/	.
1E-	.	1B-	.	.	.	2g/	.
.	.	.	.	2c\	.	4f/	.
.	.	.	.	.	.	4g/	.
=151	=151	=151	=151	=151	=151	=151	=151
1F	.	1A	.	2d\	.	2a/	.
.	.	.	.	1c	.	2f/	.
0C	.	0G	-i-	.	.	2g/	.
.	.	.	.	2c\	.	1eni	.
.	.	.	.	1c	-i-	.	.
.	.	.	.	.	.	2d/	-i-
=152	=152	=152	=152	=152	=152	=152	=152
1r	.	[0.Fl	-son.	[0.cl	-son.	[0.fl	-son.
1r	.	.	.	.	.	.	.
1F	-i-	.	.	.	.	.	.
=153	=153	=153	=153	=153	=153	=153	=153
0.Fl	-son.	0.F]	.	0.c]	.	0.f]	.
==	==	==	==	==	==	==	==
*-	*-	*-	*-	*-	*-	*-	*-
!!!RDF**kern: l=long note in original notation
!!!RDF**kern: i=musica ficta
!!!ENC: Jesse Rodin; Victoria Chang 2011/11/21/
!!!END: 2011/11/21/
!!!SMS: Eakins, IMM 17-2
!!!EED:	Victoria Chang
!!!EEV:	2011/11/23/
!!!ONB:	Translated from MusicXML and edited on 2011/11/22/ by Craig Sapp
!!muse2ps: T^@{OPR}^u^@{ONM}{. }@{OTL}^C^@{COM}\n(unicum in VatS 51, fols. 68v-81r)^i2I100v120,120,120,160c100Q4
